X: 07037
T: 40 YEARS WALTZ
C: Bob McQuillen 20 May 87
B: Bob's Note Book 7 #37
%R: waltz
Z: 2020 John Chambers <jc:trillian.mit.edu>
M: 3/4
L: 1/4
K: G
G/A/ \
| "G"BB>B | "C"AGE | "G"DB,D | G>AB | "C"cd>e | "G"dcB | "A7"BA>G | "D7"A2 G/A/ |
| "G"BB>B | "C"AGE | "G"DB,D | G>Bd | "C"ef>g | "G"dcB | "D7"AG>F | "G"G2 :|
|: B/c/ \
| "G"dg>a | bag | "C"e>fg | "G"d2 B/c/ | d>ed | "Em"gdc | "Am"BA>G | "D7"A2 B/c/ |
| "G"dg>a | bag | "C"e>fg | age | "G"d>ed | dcB | "D7"AGF | "G"G2 :|
%%begintext align
%% With love and best
%% wishes always to Bill and DG Toleman of Saratoga
%% Springs, N.Y., who celebrated 40 happy years
%% together today.
%%endtext

%%sep 1 1 500

%%sep 1 1 500

